X:1
T:In His Rude Manger-Bed Sleeping
T:In His Rude Manger-Bed Sleeping
T:James Henry Fillmore, Sr.
T:Palmer Hartsough, 1906
T:Public Domain Courtesy of the Cyber Hymnal™
T:Public Domain Courtesy of the Cyber Hymnal™
C:James Henry Fillmore, Sr.
Z:Public Domain
Z:Courtesy of the Cyber Hymnal™
%%score ( 1 2 ) ( 3 4 )
L:1/8
Q:1/4=85
M:6/4
K:F
V:1 treble 
V:2 treble 
V:3 bass 
V:4 bass 
V:1
 CD[A,E]FG[FA] | [FAc]3 [FAc]2 z | AG[DF][CA][B,G][B,C] | [A,CF]3- [A,CF]2 z | CDEFG[DFA] | %5
w: 1.~In His rude man- ger- bed|sleep- ing|See Him, the heav- en- ly|Child, *|O’er Him her si- lent watch|
w: 2.~Mo- ther, a star now is|ris- ing,|Clear on the lis- ten- ing|night; *|See how its beau- ty sur-|
w: 3.~See them, their trea- sures out-|pour- ing,|Gold, with their in- cense so|sweet; *|See them, in wor- ship a-|
 [Ec]3 [Ec]2 z | [Ec][D=B][CA][DB][DE][DB] | [CA]3- [CA]2 z | BGFED[B,C] | [A,CA]3 [CFA]2 z | %10
w: keep- ing,|Ma- ry the mo- ther, so|mild; *|Round Him the zeph- yrs are|sigh- ing,|
w: pris- ing,|Makes all the hea- vens so|bright; *|Mo- ther, it comes and is|stand- ing|
w: dor- ing,|Low at the lit- tle One’s|feet; *|Mo- ther, so poor and so|low- ly,|
 [DFA][DFA][DFA][DF=B][DFA][DFB] | [CEc]3- [CEc]2 z | CD[A,E]FG[FA] | [FAc]3 [FAc]2 z | %14
w: O’er Him the bright ha- los|shine; *|Mo- ther in won- der re-|ply- ing,|
w: O- ver thy poor man- ger-|bed; *|Wise men the way now are|find- ing,|
w: Take the glad gifts that we|bring; *|He is the bless- èd and|ho- ly,|
 AG[DF][CFA][B,EG][B,C] | [A,CF]3- [A,CF]2 z ||"^Refrain" [Ec][EB][EG][CE][CD]C | [CA]3 [CA]2 z | %18
w: Ba- by, O Ba- by di-|vine. *|||
w: By it they hi- ther are|led. *|Mo- ther, the Babe that thou|hold- est|
w: He is the Sav- ior and|King. *|||
 [FA][FA][FA][F=B][FA][FB] | [Ec]3- [Ec]2 z | C[CD][CE][CF][CG][CA] | c3 [Fc]2 z | %22
w: ||||
w: Shall for a lost world a-|tone; *|Mo- ther, the Son thou en-|fold- est|
w: ||||
 [FA][EG]F[EA][EG]C | [CF]3- [CF]2 z |] %24
w: ||
w: Scep- ters and king- doms shall|own. *|
w: ||
V:2
 A,2 A,2 x2 | x6 | [DF]2 x4 | x6 | G,3 D2 x | x6 | x6 | x6 | [CE]3 B,2 x | x6 | x6 | x6 | %12
 A,2 A,2 x2 | x6 | [DF]2 x4 | x6 || x5 C | x6 | x6 | x6 | C x5 | (A2 G) x3 | x2 F x C x | x6 |] %24
V:3
 [F,,F,]2 E, D,2 C, | A,,2 G,, F,,2 z | D,,3 C,,3 | (F,,C,B,,A,,G,,F,,) | E,,3 [D,,D,]3 | %5
 [C,,C,]2 B,, A,,2 z | [E,,E,]3 [E,,E,]3 | (A,,C,=B,, A,,2) z | G,,3 C,3 | (F,E,D,) (C,A,,F,,) | %10
 D,,3 G,,3 | (C,,C,D,C,B,,G,,) | F,,2 E, D,2 C, | A,,2 G,, F,,2 z | D,,3 C,,3 | (F,,2 C, F,2) z || %16
 [C,B,][C,B,][C,B,][C,B,][C,B,][C,B,] | [F,A,]3 [F,A,]2 z | %18
 [D,A,][D,A,][D,A,][G,,G,][G,,G,][G,,G,] | [C,G,]3- [C,G,]2 z | %20
 [F,A,][F,A,][F,A,][F,A,][F,A,][F,A,] | (C2 B,) [F,A,]2 z | [C,C][C,B,][C,A,][C,C][C,B,][C,B,] | %23
 [F,A,]3- [F,A,]2 z |] %24
V:4
 x6 | x6 | x6 | x6 | x6 | x6 | x6 | x6 | x6 | x6 | x6 | x6 | x6 | x6 | x6 | x6 || x6 | x6 | x6 | %19
 x6 | x6 | F,3 x3 | x6 | x6 |] %24

